X:1
T:6 Mélodies, VWV 1133-1137/1176
T:À la Fontaine, VWV 1133
T:A Mademoiselle MARTHE BOUTET de MONVEL
T:Pauline Viardot
T:Eugène Hubert
T:1. À la Fontaine (VWV 1133) 
T:6 Mélodies
T:Creative Commons copyright waiver (CC0 1.0 Universal)
T:Creative Commons copyright waiver (CC0 1.0 Universal)
T:Creative Commons copyright waiver (CC0 1.0 Universal)
T:Creative Commons copyright waiver (CC0 1.0 Universal)
T:Creative Commons copyright waiver (CC0 1.0 Universal)
C:Pauline Viardot
Z:Eugène Hubert
Z:Creative Commons copyright waiver (CC0 1.0 Universal)
%%score 1 { ( 2 4 ) | 3 }
L:1/8
Q:1/4=116
M:2/4
K:D
V:1 treble nm="Chant\nVoice"
V:2 treble nm="PIANO"
V:4 treble 
V:3 bass 
V:1
"^Allegretto" z4 | z4 | z4 |"^Chant / Voice" z4 | z4 | z4 | z!mf! A{/B} A G |{/A} G F{/G} F E | %8
w: ||||||Que viens- tu|faire à la fon-|
 d2 A2- | A2 z2 | z!mf!!<(! A B c!<)! |!>(!{Bc} !^!B!>)!!mf! A!<(! F A!<)! | B4- | B2 z2 | %14
w: tai- ne,|_|Fil- let- te|blonde aux yeux d'a-|zur?||
 z!mf! B{/=c} B A |{/B} A G{/A} G F | (e4 | E2) z2 | (E F G!<(! A | B2 c d!<)! |!>(! e4-)!>)! | %21
w: De- puis long-|temps la cruche est|plei-|ne,|Tu sou- ris en-|cor au flot|pur,|
 e2 z2 | z!mf! d d c | e d =c B | B2 A2 | z2 =c c | B3 B |!mf!!<(! d =c B A | _A4-!<)! | _A3!f! G | %30
w: _|Es- pè- res-|tu, par ton ha-|lei- ne,|Ré- chauf-|fer, au|fond du puits obs-|cur,|_ L'i-|
 G2 d3/2 e/ | (=c2{dc} B3/2) A/ | (G2 =F2) | !breath!E2 G =c | B2 =c2 |{B=c} d2 c B | A4- | A2 z2 | %38
w: ma- ge du|beau ca- pi-|tai- *|\- ne Que l'on|t'a don-|né pour fu-|tur?|_|
!p![Q:1/4=105]"^un peu retenu." B[Q:1/4=100] =c d e | =c2({dc)} B A | B4 | A2 z2 | %42
w: Ce qui te re-|tient da- van-|ta-|\- ge,|
!p!!<(! B ^c d e!<)! |[Q:1/4=95]"^rit." c2[Q:1/4=90]({dc)} B[Q:1/4=85] A | B4 | %45
w: Ce qui te re-|tient da- van-|ta-|
[Q:1/4=116]"^a Tempo" B4 | z4 | z4 | z!p!!>(! A!>)!{/B} A G |{/A} G F{/G} F E | d2 A2- | A2 z2 | %52
w: ge,|||C'est, je crois,|qu'a- vec ton i-|ma- ge|_|
 A2!<(! B c!<)! |!>(!{Bc} B!>)! A!<(! F A!<)! |!>(! B4-!>)! | B2 z2 | z!p! B{/c} B A | %57
w: L'on- de re-|\- flè- te les li-|las|_|Et que, ca-|
{/B} A G{/A} G F | (e4 | E2) z E | A2 G !>!_B | A2 G _B | A2 z A | !>!d2 z!p! d | f2 z F | %65
w: ché par le feuil-|la-|ge, Tu|vois le ti-|mi- de Lu-|\- cas qui|croit, qui|croit que|
 G A B c | d2 z2 | z4 | z4 |] %69
w: tu ne le vois|pas!|||
V:2
!>(!!8va(! (a'/^g'/=g'/f'/ e'/d'/c'/b/!>)! |!mf! a/b/a/b/ a/^g/a/g/)!8va)! | (a/^g/=g/f/ e/d/c/B/ | %3
 A/B/A/B/ A/^G/A/G/) | (A/B/A/B/ A/^G/B/G/ | A/B/A/B/ A/^G/A/G/) | (A/B/A/B/) z/ (A/B/A/) | %7
 z/ (A/B/A/) z/ (A/B/A/) | (F/A/B/A/) (A/d/e/d/) | (d/f/g/f/)"C4" g/"C1"a/b/c'/ | %10
!8va(! (d'/e'/d'/b/ a/"C4"b/a/f/)!8va)! | (d/e/d/A/ F/G/F/D/) | (B,/C/^D/E/ F/"C1"G/A/^A/) | %13
 (B/c/^d/"C1"e/ f/"C1"g/a/^a/) |"C1" b/=c'/b/c'/ b/c'/b/c'/ | %15
!8va(! b/!mf!!<(!=c'/b/c'/"C1" b/^c'/"C3"d'/"C4"^d'/!<)! | %16
"C5"!>(! e'/"C3"d'/"C2"=c'/"C1"b/"C4" a/g/f/=f/!8va)! |"C4" e/d/=c/B/"C4" A/G/F/!>)!E/ | %18
 z2 (B/G/E/D/) | (d/B/G/E/) (e/d/B/G/) |"C1" (E/F/G/^G/"C1" A/B/c/d/ | %21
"C1" e/f/g/^g/"C1" a/^a/b/c'/ | d'/) z/ D/=F/ (A/F/D/A,/) | x D/=F/ (A/F/D/A,/) | %24
 (!>!A,/B,/A,/B,/ !>!=C/D/"C1"C/D/ | E/F/"C1"E/F/ ^G/A/G/A/) | z/ (B,/=F/A/ B/A/F/B,/) | %27
 z/ (B,/E/A/ B/A/E/B,/) | z/!mf!!<(! (B,/D/_A/ B/A/D/B,/) | (d/B/_A/=F/) (=f/d/B/!<)!!f!A/) | %30
 g/!p!a/g/a/ g/a/g/a/ | g/a/g/a/ g/a/g/a/ | g/a/g/a/ g/a/g/a/ | g/a/g/a/ g/a/g/a/ | %34
 =f/g/f/g/ f/g/f/g/ | e/=f/e/f/ e/f/e/f/ |!p!!>(! [=ce]/=f/e/d/ c/d/c/B/ | %37
 A/B/A/=F/ E/F/E/!>)!!pp!=C/ |"^un peu retenu." z2 (e/=f/e/f/) | z2 (e/=f/e/f/) | z2 (e/=f/e/f/) | %41
 z2 (e/=f/e/f/) | z2 (e/f/e/f/) | z2 (e/f/e/f/) | x2 (E/G/B/e/) |"^a Tempo" (g/a/g/f/ e/d/c/B/) | %46
 (!>!A/B/A/B/ !>!A/^G/A/G/) | (!>!A/B/A/B/ !>!A/^G/A/G/) |!p! A/B/A/B/ z/ (A/B/A/) | %49
 z/ (A/B/A/) z/ (A/B/A/) | (F/A/B/A/) (A/d/e/d/) | (d/f/g/f/) (g/a/b/c'/) | %52
!8va(! d'/e'/d'/b/!8va)! (a/"C4"b/a/f/) | (d/"C4"e/d/A/)"C3" (F/G/F/D/) | %54
 (B,/C/^D/E/ F/"C1"G/A/^A/ |"C1" B/c/^d/"C1"e/ f/"C1"g/a/^a/) |"C1" b/"C3"=c'/b/c'/ b/c'/b/c'/ | %57
!8va(! b/=c'/b/c'/"C1" b/c'/^c'/^d'/ |"C5"!p!!>(! (e'/"C3"=d'/=c'/b/!>)!"C4"!pp! a/g/f/=f/!8va)! | %59
"C4" e/d/=c/B/ A/G/F/E/) | z/ (d/a/d/) z/ (d/_b/d/) | z/ (d/a/d/) z/ (d/_b/d/) | a .[Af].[da] z | %63
 z .[da].[fd'] z | z4 | z2 [CGA] z | (F/A/B/A/ A/d/e/d/ | d/f/g/f/"C3"!8va(! a/"C1"d'/f'/a'/) | %68
 [f'd'']!8va)! z z2 |] %69
V:3
!ped! z4 | z4 | z4!ped-up! | z4 | z4 | z4 | z2[I:staff -1] .[EG][I:staff +1] z | %7
[I:staff -1] .[DF][I:staff +1] z[I:staff -1] .[A,E][I:staff +1] z | %8
!ped! .[D,A,] z[I:staff -1] .[DF][I:staff +1] z | %9
[I:staff -1] .[FA][I:staff +1] z[I:staff -1] .[Ad][I:staff +1] z |[K:treble] [Af] z [Fd] z | %11
[K:bass] [A,F] z [A,E] z!ped-up! |!ped! (B,,F,A,^D |[K:treble] A) z z2!ped-up! | z2 [fa] z | %15
 [eg] z [Bf] z |[K:bass]!ped! (=C,G,=CE!ped-up! | G) z z2 |!mf!!ped! (A,,/E,/G,/B,/) z2 | z4 | %20
!ped! (A,,!ped-up!E,G,A, |[K:treble] A) z z2 |[K:bass] B,,/A,/ x x2 | B,,/A,/ x x2 | %24
!p! =C, z E, z | A, z =C z | D,4 | E,4 | =F,4 | z4 | [=F,G,B,] z G,, z | [E,G,=C] z G,, z | %32
 [=F,G,B,] z G,, z | [E,G,=C] z =C,, z |[K:treble] [DA]2[K:bass] E,2 | [B,E]2 E,2 | [A,,E,]2 z2 | %37
 z4 |!p! (A,,/E,/^G,/B,/) z2 | (A,,/E,/A,/=C/) z2 | (A,,/E,/^G,/B,/) z2 | (A,,/E,/A,/=C/) z2 | %42
!ped! (A,,/E,/^G,/B,/) z2!ped-up! |!ped! (A,,/!ped-up!"^rit."E,/A,/C/) z2 | %44
!ped! (A,,/!ped-up!!mf!E,/G,/B,/) z2 | z4 | z4 | z4 | z2[I:staff -1] [EG][I:staff +1] z | %49
[I:staff -1] [DF][I:staff +1] z[I:staff -1] [A,E][I:staff +1] z | %50
!ped! [D,A,] z[I:staff -1] [DF][I:staff +1] z!ped-up! | %51
[I:staff -1] [FA][I:staff +1] z[I:staff -1] [Ad][I:staff +1] z |[K:treble] [Af] z [Fd] z | %53
[K:bass] [A,F] z z2 |!ped! (B,,F,!ped-up!A,^D |[K:treble] A) z z2 | z2 [fa] z | [eg] z [Bf] z | %58
[K:bass]!ped! (=C,G,=CE!ped-up! |[K:treble] G) z z2 |[K:bass] A,,A,[K:treble] !>!GA, | FA, GA, | %62
 F!p! .D.F z | z .F.A z | z4 |[K:bass] z2!pp! [A,,E,] z | %66
!p!!ped! D,2!ped-up![I:staff -1] [DF][I:staff +1] z | %67
[I:staff -1] [FA][I:staff +1] z[K:treble] [df] z | [ad'] z z2 |] %69
V:4
!8va(! x4 | x4!8va)! | x4 | x4 | x4 | x4 | x4 | x4 | x4 | x4 |!8va(! x4!8va)! | x4 | x4 | x4 | x4 | %15
!8va(! x4 | x4!8va)! | x4 | x4 | x4 | x4 | x4 | x4 | x4 | x4 | x4 | x4 | x4 | x4 | x4 | [B=f] x3 | %31
 [=ce] x3 | B x3 | [=ce] x3 | B x3 | [^Gd] x3 | x4 | x4 | x2 [^Gd]2 | x2 [A=c]2 | x2 [^Gd]2 | %41
 x2 [A=c]2 | x2 [^Gd]2 | x2 [Ac]2 | x4 | x4 | x4 | x4 | x4 | x4 | x4 | x4 |!8va(! x2!8va)! x2 | %53
 x4 | x4 | x4 | x4 |!8va(! x4 | x4!8va)! | x4 | x4 | x4 | x4 | x4 | x4 | x4 | x4 | x2!8va(! x2 | %68
 x!8va)! x3 |] %69

